src/assets/img/icons/duotone-icons/Design/Layers.svg

<?xml version="1.0" encoding="UTF-8"?>
<svg width="24px" height="24px" viewBox="0 0 24 24" version="1.1" xmlns="http://www.w3.org/2000/svg" xmlns:xlink="http://www.w3.org/1999/xlink">
    <!-- Generator: Sketch 52.2 (67145) - http://www.bohemiancoding.com/sketch -->
    <title>Stockholm-icons / Design / Layers</title>
    <desc>Created with Sketch.</desc>
    <g id="Stockholm-icons-/-Design-/-Layers" stroke="none" stroke-width="1" fill="none" fill-rule="evenodd">
        <polygon id="Bound" points="0 0 24 0 24 24 0 24"></polygon>
        <path d="M12.9336061,16.072447 L19.36,10.9564761 L19.5181585,10.8312381 C20.1676248,10.3169571 20.2772143,9.3735535 19.7629333,8.72408713 C19.6917232,8.63415859 19.6104327,8.55269514 19.5206557,8.48129411 L12.9336854,3.24257445 C12.3871201,2.80788259 11.6128799,2.80788259 11.0663146,3.24257445 L4.47482784,8.48488609 C3.82645598,9.00054628 3.71887192,9.94418071 4.23453211,10.5925526 C4.30500305,10.6811601 4.38527899,10.7615046 4.47382636,10.8320511 L4.63,10.9564761 L11.0659024,16.0730648 C11.6126744,16.5077525 12.3871218,16.5074963 12.9336061,16.072447 Z" id="Shape" fill="#335EEA"></path>
        <path d="M11.0563554,18.6706981 L5.33593024,14.122919 C4.94553994,13.8125559 4.37746707,13.8774308 4.06710397,14.2678211 C4.06471678,14.2708238 4.06234874,14.2738418 4.06,14.2768747 L4.06,14.2768747 C3.75257288,14.6738539 3.82516916,15.244888 4.22214834,15.5523151 C4.22358765,15.5534297 4.2250303,15.55454 4.22647627,15.555646 L11.0872776,20.8031356 C11.6250734,21.2144692 12.371757,21.2145375 12.909628,20.8033023 L19.7677785,15.559828 C20.1693192,15.2528257 20.2459576,14.6784381 19.9389553,14.2768974 C19.9376429,14.2751809 19.9363245,14.2734691 19.935,14.2717619 L19.935,14.2717619 C19.6266937,13.8743807 19.0546209,13.8021712 18.6572397,14.1104775 C18.654352,14.112718 18.6514778,14.1149757 18.6486172,14.1172508 L12.9235044,18.6705218 C12.377022,19.1051477 11.6029199,19.1052208 11.0563554,18.6706981 Z" id="Path" fill="#335EEA" opacity="0.3"></path>
    </g>
</svg>

<svg width="24" height="24" viewBox="0 0 24 24" xmlns="http://www.w3.org/2000/svg"><g fill="none" fill-rule="evenodd"><path d="M0 0h24v24H0z"/><path d="M12.934 16.072l6.426-5.116.158-.125a1.5 1.5 0 00.003-2.35l-6.587-5.238a1.5 1.5 0 00-1.868 0L4.475 8.485a1.5 1.5 0 00-.001 2.347l.156.124 6.436 5.117a1.5 1.5 0 001.868 0z" fill="#335EEA"/><path d="M11.056 18.67l-5.72-4.547a.903.903 0 00-1.276.154.91.91 0 00.166 1.279l6.861 5.247a1.5 1.5 0 001.823 0l6.858-5.243a.915.915 0 00.167-1.288.91.91 0 00-1.286-.155l-5.725 4.554a1.5 1.5 0 01-1.868 0z" fill="#335EEA" opacity=".3"/></g></svg>
